X: 1
T: Christmas Hallelujah    [Bb]
C: music: Leonard Cohen
C: words: Cloverton
Z: 2018 John Chambers <jc:trillian.mit.edu>
M: 6/8
L: 1/8
K: Bb
% - - - - - - - - - -
D | "Bb"F2F F2F | "Gm7"G2G G2D | "Bb"F2F F2F | G2G G2F |
w: I've heard a-bout this ba-by boy, Who's come to earth to bring us joy, And
 "Eb"G2G G2G | "F/A"G2F F2E | "Bb"F2F- F3 | "F"z3 z2D |
w: I just want to sing this song* to you.* It
 "Bb"F2F F2F | "Eb"G2G "F"A2A | "Gm"BB2 B2B | "Eb"B2B B2B |
w: goes like this: the fourth, the fifth, the minor fall,_ the ma-jor lift. With
 "F"c2c c2c | "D"d2d "D/F#"d2c | "Gm"c2B- B3 |
w: e-very breath I'm sing-ing "Hal-le-lu-jah."_
 z3 D2F | "Eb"G3 G3 | z3 G2F | "Gm"D3 D3 | z3 D2F |
w: Hal-le-lu-jah, hal-le-lu-jah, hal-le-
 "Eb"G3 G3 | z3 G2F | "Bb"D3- DED | "Fsus4"C3- "F"C3 | "Bb"B,6- | B,3 z2 |]
w: \-lu-jah, hal-le-lu-_____jah.

%%sep 1 1 500
%%sep 1 1 500

